X:299
T: Wiegenlied (3-100), S. 271
N: P1074
O: Lothringen
S: PINCK, Louis: Verklingende Weisen, Bd3, Metz 1933]
R: Schlaf-, Wiegenlied]
M: 2/4
L: 1/16
K: G
G4A2F2 | G4z2
G2 | c2c2d2B2 | A4z2
BA | G2G2A2A2 | d2d2B2
B2 | G2G2A2A2 | d2d2B2
BA | G2G2A2A2 | d2d2B2
A2 | G2G2AAA2 | d2d2B4
G4A2A2 | d6
c2 | BBG2A2A2 | G6z2

